teeny/outline/float-right.svg

<svg width="15" height="15" viewBox="0 0 15 15" fill="none" xmlns="http://www.w3.org/2000/svg">
<path d="M0 5.5H6M0 1.5H6M0 9.5H15M0 13.5H15M9.5 0.5H13.5C14.0523 0.5 14.5 0.947715 14.5 1.5V5.5C14.5 6.05228 14.0523 6.5 13.5 6.5H9.5C8.94772 6.5 8.5 6.05228 8.5 5.5V1.5C8.5 0.947715 8.94772 0.5 9.5 0.5Z" stroke="black"/>
</svg>

<svg viewBox="0 0 15 15" xmlns="http://www.w3.org/2000/svg"><path fill="none" stroke="#000" d="M0 5.5h6m-6-4h6m-6 8h15m-15 4h15M9.5.5h4c.55 0 1 .44 1 1v4c0 .55-.45 1-1 1h-4c-.56 0-1-.45-1-1v-4c0-.56.44-1 1-1Z"/></svg>
